build/img/icon-fb.svg

<svg width="24" height="24" viewBox="0 0 24 24" fill="none" xmlns="http://www.w3.org/2000/svg">
<path d="M12 0C5.37294 0 0 5.40537 0 12.0724C0 18.0972 4.38764 23.0909 10.1254 24V15.5629H7.07711V12.0724H10.1254V9.41262C10.1254 6.38455 11.9172 4.71476 14.6571 4.71476C15.97 4.71476 17.3453 4.9502 17.3453 4.9502V7.91911H15.8284C14.3402 7.91911 13.8746 8.85119 13.8746 9.80622V12.07H17.2001L16.6685 15.5605H13.8746V23.9976C19.6124 23.0933 24 18.0984 24 12.0724C24 5.40537 18.6271 0 12 0Z" fill="white"/>
</svg>

<svg width="24" height="24" fill="none" xmlns="http://www.w3.org/2000/svg"><path d="M12 0C5.373 0 0 5.405 0 12.072 0 18.097 4.388 23.091 10.125 24v-8.437H7.077v-3.49h3.048v-2.66c0-3.028 1.792-4.698 4.532-4.698 1.313 0 2.688.235 2.688.235v2.97h-1.517c-1.488 0-1.953.931-1.953 1.886v2.264H17.2l-.531 3.49h-2.794v8.438C19.612 23.093 24 18.098 24 12.072 24 5.405 18.627 0 12 0z" fill="#fff"/></svg>
